X:2544
T:Willie Is A Bonnie Lad
C:anon.
O:England
S:Charlton Mem. T.B.
R:Reel
Z:Chris Partington.
F:http://abc.musicaviva.com/tunes/england/willie-is-a-bonnie-lad.abc
%Posted at abcusers Jan 2nd 2001 by Johnny Adams.
M:4/4
L:1/8
Q:1/4=200
K:D
g|fdfd ceeg|fdfdg2bg|fdfd ceeg|afged2d:|
|:d|A2AF GEEB|ABAFd2cB|A2AF GEEg|afged2d:|
W:
W:
W:  From Musica Viva - http://www.musicaviva.com
W:  the Internet center for free sheet music downloads.

